X: 1057
T:Hardiman the Fiddler (A25)
N: page A25
N: heptatonic
R: Slip Jig
M:9/8
L:1/8
K:G
"D"A2 G FDE FEF|A3  AGA "C"cAG|"D"A2 G FDE F2 G|Ad^c ded "C"=cAG:|
"D"A2d d2 e f3|Ad^c ded "C"=cAG|"D"Ad^c d2e f2g|agf "C"ged cAG|
"D"Ad^c d2e fef|Ad^c ded =cAG|dcA B/c/de f2g|agf "C"ged cAG|
